X:1
T:Title
%%score { ( 1 3 ) | ( 2 4 ) }
L:1/8
M:4/4
K:Ab
V:1 treble nm="Grand Piano"
V:3 treble 
V:2 bass 
V:4 bass 
V:1
 z4 z2[Q:1/4=108] [A,CE]2 | [A,CE]2 [CEA]2 [CEA]2 [CEA][CEA] | [B,EG]2 [DGB]2 [DGB]2 [DGB][DGB] | %3
 [CA]2 [EAc]2 [EAc]2 [A,EA]2 |[M:3/4] [EB]6 |[M:1/4] [B,DE][B,DE] | %6
[M:4/4] [A,CE]2 [CEA]2 [CEA]2 [EA]A | G2 [GB]2 [GB]2 [Gd][Gd] | [Ac]2 [FB]B A2 GG | [CEA]6 z2 | %10
 [GB]2- [EG-B-]2 [EGB]2 c2 | [EA]6 z2 | [DF]6 [FA]2 | [CE]6 z2 | c2 cc B2 A2 | B6 EE | %16
 [A,CE]2 [CEA]2 [CEA]2 [CEA]2 | [B,EG]2 [EGB]2 [EGB]2 [EGd]2 | [EAc]2 [DFB]2 [CEA]2 [B,EG]2 | %19
[M:3/4] [CEA]6 |] %20
V:2
 z4 z2 A,,2 | A,,2 A,,2 A,,2 A,,A,, | E,2 E,2 E,2 E,E, | A,2 A,2 A,2 C,2 |[M:3/4] [E,G,]6 | %5
[M:1/4] E,E, |[M:4/4] A,,2 A,,2 A,,2 z E | [E,B,E]2 [E,E]2 [E,E]2 [E,E]2 | [A,E]2 z F [E,CE]2 EE | %9
 A,,6 z2 | E,2 E,2 E,2 A2 | A,,2 A,,2 A,,2 CC | D,2 D,2 D,2 D,D, | A,,2 A,,2 A,,2 A,,2 | %14
 [A,E]2 [A,E][A,E] [G,B,E]2 [F,B,=D]2 | [E,G,E]6 [E,G,D][E,G,D] | A,,2 A,,2 A,,2 A,,2 | %17
 E,2 E,2 E,2 E,2 | A,2 D,2 E,2 E,2 |[M:3/4] A,,6 |] %20
V:3
 x8 | x8 | x8 | x8 |[M:3/4] x6 |[M:1/4] x2 |[M:4/4] z4 z2 C2 | x8 | x8 | x8 | E2 z2 z4 | %11
 C2 C2 C2 EE | A,2 A,2 A,2 A,A, | A,2 A,2 A,2 [A,CA]2 | x8 | x8 | x8 | x8 | x8 |[M:3/4] x6 |] %20
V:4
 x8 | x8 | x8 | x8 |[M:3/4] x6 |[M:1/4] x2 |[M:4/4] z4 z2 A,,2 | x8 | z2 [D,D]2 z2 [E,B,]2 | x8 | %10
 x8 | x8 | x8 | x8 | x8 | x8 | x8 | x8 | x8 |[M:3/4] x6 |] %20

